Newaita-dark/apps/64/lastpass.svg

<svg height="64" viewBox="0 0 64 64" width="64" xmlns="http://www.w3.org/2000/svg" xmlns:xlink="http://www.w3.org/1999/xlink"><linearGradient id="a"><stop offset="0" stop-opacity=".313726"/><stop offset=".222222" stop-opacity=".27451"/><stop offset="1" stop-opacity="0"/></linearGradient><radialGradient id="b" cx="450.908936" cy="189.579361" gradientTransform="matrix(.00000035 -.156265 -.281277 -.0000002 89.046304 127.190659)" gradientUnits="userSpaceOnUse" r="21.166656" xlink:href="#a"/><radialGradient id="c" cx="450.908936" cy="189.579361" gradientTransform="matrix(-.00000035 .156265 .281277 .0000002 -25.540237 -15.054964)" gradientUnits="userSpaceOnUse" r="21.166656" xlink:href="#a"/><radialGradient id="d" cx="450.908936" cy="189.579361" gradientTransform="matrix(-.00000035 -.156265 .281277 -.0000002 -25.540237 127.190659)" gradientUnits="userSpaceOnUse" r="21.166656" xlink:href="#a"/><radialGradient id="e" cx="450.908936" cy="189.579361" gradientTransform="matrix(.00000035 .156265 -.281277 .0000002 89.0463 -15.054965)" gradientUnits="userSpaceOnUse" r="21.166656" xlink:href="#a"/><linearGradient id="f" gradientTransform="matrix(.0267201 0 0 .125012 24.930772 26.877567)" gradientUnits="userSpaceOnUse" x1="255.323059" x2="255.323044" y1="233.5" y2="254.666656"><stop offset="0" stop-opacity=".27451"/><stop offset="1" stop-opacity="0"/></linearGradient><linearGradient id="g" gradientUnits="userSpaceOnUse" x1="254" x2="254" y1="-168.666672" y2="233.5"><stop offset="0" stop-color="#e57373"/><stop offset="1" stop-color="#ef5350"/></linearGradient><linearGradient id="h" gradientTransform="matrix(.108264 .062506 -.062506 .108264 6.28032 11.543976)" gradientUnits="userSpaceOnUse" x1="354.541779" x2="153.45845" y1="206.559921" y2="-141.726639"><stop offset="0" stop-color="#e0e0e0"/><stop offset="1" stop-color="#eee"/></linearGradient><path d="m36.382812 56.066406h5.292969v-2.644531h-5.292969zm0 0" fill="url(#b)"/><path d="m27.121094 56.066406h-5.289063v2.648438h5.289063zm0 0" fill="url(#c)"/><path d="m27.121094 56.066406h-5.289063v-2.644531h5.289063zm0 0" fill="url(#d)"/><path d="m36.382812 56.066406h5.292969v2.648438h-5.292969zm0 0" fill="url(#e)"/><path d="m27.121094 55.40625h9.261718v3.308594h-9.261718zm0 0" fill="url(#f)"/><path d="m254.006994-168.660675c111.051895 0 201.074548 90.022653 201.074548 201.074548s-90.022653 201.074548-201.074548 201.074548c-111.051896 0-201.105796-90.022653-201.105796-201.074548s90.0539-201.074548 201.105796-201.074548zm0 0" fill="url(#g)" stroke="#333" stroke-linecap="round" stroke-width="3" transform="matrix(.125012 0 0 .125012 0 26.877566)"/><path d="m31.753906 55.902344c-13.925781 0-25.140625-11.210938-25.140625-25.136719 0-.082031.003907-.164063.003907-.246094.128906 13.8125 11.292968 24.890625 25.136718 24.890625s25.003906-11.078125 25.136719-24.890625v.246094c0 13.925781-11.210937 25.136719-25.136719 25.136719zm0 0" fill-opacity=".196078"/><path d="m31.753906 5.957031c-13.925781 0-25.140625 11.210938-25.140625 25.136719 0 .082031.003907.164062.003907.246094.128906-13.808594 11.292968-24.890625 25.136718-24.890625s25.003906 11.082031 25.136719 24.890625c0-.082032 0-.164063 0-.246094 0-13.925781-11.210937-25.136719-25.136719-25.136719zm0 0" fill="#fff" fill-opacity=".392157"/><path d="m31.753906 5.605469c-14.027344 0-25.328125 11.296875-25.328125 25.324219 0 14.027343 11.300781 25.324218 25.328125 25.324218s25.324219-11.296875 25.324219-25.324218c0-14.027344-11.296875-25.324219-25.324219-25.324219zm0 .375c13.824219 0 24.949219 11.125 24.949219 24.949219 0 13.824218-11.125 24.949218-24.949219 24.949218-13.828125 0-24.953125-11.125-24.953125-24.949218 0-13.824219 11.125-24.949219 24.953125-24.949219zm0 0" fill="#212121"/><path d="m37.882812 17.664062c-1.269531-.730468-2.878906-.300781-3.613281.96875l-2.515625 4.359376-2.515625-4.359376c-.734375-1.269531-2.347656-1.699218-3.617187-.96875l-2.289063 1.324219c-1.269531.734375-1.703125 2.34375-.96875 3.613281l2.515625 4.359376h-5.035156c-1.464844 0-2.644531 1.179687-2.644531 2.644531v2.648437c0 1.464844 1.179687 2.644532 2.644531 2.644532h5.035156l-2.515625 4.359374c-.734375 1.269532-.300781 2.882813.96875 3.613282l2.289063 1.324218c1.269531.734376 2.882812.300782 3.617187-.96875l2.515625-4.359374 2.515625 4.359374c.734375 1.269532 2.34375 1.703126 3.613281.96875l2.292969-1.324218c1.269531-.730469 1.703125-2.34375.96875-3.613282l-2.515625-4.359374h5.03125c1.464844 0 2.644532-1.179688 2.644532-2.644532v-2.648437c0-1.464844-1.179688-2.644531-2.644532-2.644531h-5.03125l2.515625-4.359376c.734375-1.269531.300781-2.878906-.96875-3.613281zm0 0" fill="url(#h)"/><path d="m27.003906 17.308594c-.46875-.011719-.945312.105468-1.382812.355468l-2.289063 1.324219c-1.011719.582031-1.492187 1.722657-1.277343 2.804688.144531-.722657.585937-1.378907 1.277343-1.777344l2.289063-1.324219c1.269531-.734375 2.882812-.300781 3.617187.96875l2.515625 4.359375 2.515625-4.359375c.734375-1.269531 2.34375-1.703125 3.613281-.96875l2.292969 1.324219c.6875.398437 1.128907 1.054687 1.273438 1.773437.214843-1.078124-.265625-2.21875-1.273438-2.800781l-2.292969-1.324219c-1.269531-.730468-2.878906-.300781-3.613281.96875l-2.515625 4.359376-2.515625-4.359376c-.484375-.832031-1.34375-1.304687-2.234375-1.324218zm-7.160156 9.652344c-1.464844 0-2.644531 1.179687-2.644531 2.644531v1.027343c0-1.464843 1.179687-2.644531 2.644531-2.644531h5.035156l-.59375-1.027343zm19.378906 0-.59375 1.027343h5.03125c1.464844 0 2.644532 1.179688 2.644532 2.644531v-1.027343c0-1.464844-1.179688-2.644531-2.644532-2.644531zm-14.9375 8.964843-1.921875 3.332031c-.335937.578126-.425781 1.230469-.308593 1.839844.058593-.28125.15625-.554687.308593-.8125l2.515625-4.359375zm14.34375 0 2.515625 4.359375c.148438.257813.25.53125.304688.8125.121093-.609375.03125-1.261718-.304688-1.839844l-1.921875-3.332031zm0 0" fill="#fff"/><path d="m41.414062 21.9375c-.058593.226562-.148437.453125-.269531.664062l-2.515625 4.359376h.761719l1.753906-3.035157c.363281-.628906.4375-1.339843.269531-1.988281zm-19.324218 0c-.167969.648438-.089844 1.359375.273437 1.988281l1.75 3.035157h.765625l-2.515625-4.359376c-.125-.210937-.214843-.4375-.273437-.664062zm-4.890625 10.316406v1.320313c0 1.46875 1.179687 2.648437 2.644531 2.648437h4.269531l.765625-1.324218h-5.035156c-1.464844 0-2.644531-1.179688-2.644531-2.644532zm29.105469 0c0 1.464844-1.179688 2.644532-2.644532 2.644532h-5.03125l.761719 1.324218h4.269531c1.464844 0 2.644532-1.179687 2.644532-2.648437zm-14.550782 6.613282-2.515625 4.359374c-.734375 1.269532-2.347656 1.703126-3.617187.96875l-2.289063-1.324218c-.644531-.371094-1.070312-.964844-1.242187-1.625-.289063 1.121094.183594 2.339844 1.242187 2.949218l2.289063 1.324219c1.269531.730469 2.882812.300781 3.617187-.96875l2.515625-4.359375 2.515625 4.359375c.734375 1.269531 2.34375 1.699219 3.613281.96875l2.292969-1.324219c1.054688-.609374 1.53125-1.828124 1.238281-2.949218-.167968.660156-.597656 1.253906-1.238281 1.625l-2.292969 1.324218c-1.269531.734376-2.878906.300782-3.613281-.96875zm0 0" fill-opacity=".235294"/><path d="m303.033562-73.700993c-10.15528-5.843192-23.029051-2.406021-28.90349 7.74926l-20.123078 34.87167-20.123079-34.87167c-5.874439-10.155281-18.779456-13.592452-28.934737-7.74926l-18.310751 10.592738c-10.15528 5.874439-13.623699 18.74821-7.74926 28.90349l20.123078 34.87167h-40.277403c-11.717631 0-21.15423 9.436599-21.15423 21.15423v21.185477c0 11.717631 9.436599 21.154229 21.15423 21.154229h40.277403l-20.123078 34.87167c-5.874439 10.155281-2.40602 23.060298 7.74926 28.90349l18.310751 10.592739c10.155281 5.874439 23.060298 2.40602 28.934737-7.74926l20.123079-34.87167 20.123078 34.87167c5.874439 10.15528 18.74821 13.623699 28.90349 7.74926l18.341998-10.592739c10.15528-5.843192 13.623699-18.748209 7.74926-28.90349l-20.123078-34.87167h40.246156c11.717632 0 21.15423-9.436598 21.15423-21.154229v-21.185477c0-11.717631-9.436598-21.15423-21.15423-21.15423h-40.246156l20.123078-34.87167c5.874439-10.15528 2.40602-23.029051-7.74926-28.90349zm0 0" fill="none" stroke="#212121" stroke-linecap="round" stroke-linejoin="round" stroke-width="3" transform="matrix(.125012 0 0 .125012 0 26.877566)"/></svg>

<?xml version="1.0" encoding="UTF-8"?>
<svg xmlns="http://www.w3.org/2000/svg" xmlns:xlink="http://www.w3.org/1999/xlink" width="64px" height="64px" viewBox="0 0 64 64" version="1.1">
<defs>
<radialGradient id="radial0" gradientUnits="userSpaceOnUse" cx="450.908936" cy="189.579361" fx="450.908936" fy="189.579361" r="21.166656" gradientTransform="matrix(0.000000348341,-0.156265,-0.281277,-0.000000203077,89.046304,127.190659)">
<stop offset="0" style="stop-color:rgb(0%,0%,0%);stop-opacity:0.313726;"/>
<stop offset="0.222222" style="stop-color:rgb(0%,0%,0%);stop-opacity:0.27451;"/>
<stop offset="1" style="stop-color:rgb(0%,0%,0%);stop-opacity:0;"/>
</radialGradient>
<radialGradient id="radial1" gradientUnits="userSpaceOnUse" cx="450.908936" cy="189.579361" fx="450.908936" fy="189.579361" r="21.166656" gradientTransform="matrix(-0.000000348341,0.156265,0.281277,0.000000203077,-25.540237,-15.054964)">
<stop offset="0" style="stop-color:rgb(0%,0%,0%);stop-opacity:0.313726;"/>
<stop offset="0.222222" style="stop-color:rgb(0%,0%,0%);stop-opacity:0.27451;"/>
<stop offset="1" style="stop-color:rgb(0%,0%,0%);stop-opacity:0;"/>
</radialGradient>
<radialGradient id="radial2" gradientUnits="userSpaceOnUse" cx="450.908936" cy="189.579361" fx="450.908936" fy="189.579361" r="21.166656" gradientTransform="matrix(-0.000000348341,-0.156265,0.281277,-0.000000203077,-25.540237,127.190659)">
<stop offset="0" style="stop-color:rgb(0%,0%,0%);stop-opacity:0.313726;"/>
<stop offset="0.222222" style="stop-color:rgb(0%,0%,0%);stop-opacity:0.27451;"/>
<stop offset="1" style="stop-color:rgb(0%,0%,0%);stop-opacity:0;"/>
</radialGradient>
<radialGradient id="radial3" gradientUnits="userSpaceOnUse" cx="450.908936" cy="189.579361" fx="450.908936" fy="189.579361" r="21.166656" gradientTransform="matrix(0.000000348341,0.156265,-0.281277,0.000000203077,89.0463,-15.054965)">
<stop offset="0" style="stop-color:rgb(0%,0%,0%);stop-opacity:0.313726;"/>
<stop offset="0.222222" style="stop-color:rgb(0%,0%,0%);stop-opacity:0.27451;"/>
<stop offset="1" style="stop-color:rgb(0%,0%,0%);stop-opacity:0;"/>
</radialGradient>
<linearGradient id="linear0" gradientUnits="userSpaceOnUse" x1="255.323059" y1="233.5" x2="255.323044" y2="254.666656" gradientTransform="matrix(0.0267201,0,0,0.125012,24.930772,26.877567)">
<stop offset="0" style="stop-color:rgb(0%,0%,0%);stop-opacity:0.27451;"/>
<stop offset="1" style="stop-color:rgb(0%,0%,0%);stop-opacity:0;"/>
</linearGradient>
<linearGradient id="linear1" gradientUnits="userSpaceOnUse" x1="254" y1="-168.666672" x2="254" y2="233.5" >
<stop offset="0" style="stop-color:rgb(89.803922%,45.09804%,45.09804%);stop-opacity:1;"/>
<stop offset="1" style="stop-color:rgb(93.725491%,32.549021%,31.37255%);stop-opacity:1;"/>
</linearGradient>
<linearGradient id="linear2" gradientUnits="userSpaceOnUse" x1="354.541779" y1="206.559921" x2="153.45845" y2="-141.726639" gradientTransform="matrix(0.108264,0.062506,-0.062506,0.108264,6.28032,11.543976)">
<stop offset="0" style="stop-color:rgb(87.843138%,87.843138%,87.843138%);stop-opacity:1;"/>
<stop offset="1" style="stop-color:rgb(93.333334%,93.333334%,93.333334%);stop-opacity:1;"/>
</linearGradient>
</defs>
<g id="surface1">
<path style=" stroke:none;fill-rule:nonzero;fill:url(#radial0);" d="M 36.382812 56.066406 L 41.675781 56.066406 L 41.675781 53.421875 L 36.382812 53.421875 Z M 36.382812 56.066406 "/>
<path style=" stroke:none;fill-rule:nonzero;fill:url(#radial1);" d="M 27.121094 56.066406 L 21.832031 56.066406 L 21.832031 58.714844 L 27.121094 58.714844 Z M 27.121094 56.066406 "/>
<path style=" stroke:none;fill-rule:nonzero;fill:url(#radial2);" d="M 27.121094 56.066406 L 21.832031 56.066406 L 21.832031 53.421875 L 27.121094 53.421875 Z M 27.121094 56.066406 "/>
<path style=" stroke:none;fill-rule:nonzero;fill:url(#radial3);" d="M 36.382812 56.066406 L 41.675781 56.066406 L 41.675781 58.714844 L 36.382812 58.714844 Z M 36.382812 56.066406 "/>
<path style=" stroke:none;fill-rule:nonzero;fill:url(#linear0);" d="M 27.121094 55.40625 L 36.382812 55.40625 L 36.382812 58.714844 L 27.121094 58.714844 Z M 27.121094 55.40625 "/>
<path style="fill-rule:nonzero;fill:url(#linear1);stroke-width:3;stroke-linecap:round;stroke-linejoin:miter;stroke:rgb(20%,20%,20%);stroke-opacity:1;stroke-miterlimit:4;" d="M 254.006994 -168.660675 C 365.058889 -168.660675 455.081542 -78.638022 455.081542 32.413873 C 455.081542 143.465768 365.058889 233.488421 254.006994 233.488421 C 142.955098 233.488421 52.901198 143.465768 52.901198 32.413873 C 52.901198 -78.638022 142.955098 -168.660675 254.006994 -168.660675 Z M 254.006994 -168.660675 " transform="matrix(0.125012,0,0,0.125012,0,26.877566)"/>
<path style=" stroke:none;fill-rule:nonzero;fill:rgb(0%,0%,0%);fill-opacity:0.196078;" d="M 31.753906 55.902344 C 17.828125 55.902344 6.613281 44.691406 6.613281 30.765625 C 6.613281 30.683594 6.617188 30.601562 6.617188 30.519531 C 6.746094 44.332031 17.910156 55.410156 31.753906 55.410156 C 45.597656 55.410156 56.757812 44.332031 56.890625 30.519531 C 56.890625 30.601562 56.890625 30.683594 56.890625 30.765625 C 56.890625 44.691406 45.679688 55.902344 31.753906 55.902344 Z M 31.753906 55.902344 "/>
<path style=" stroke:none;fill-rule:nonzero;fill:rgb(100%,100%,100%);fill-opacity:0.392157;" d="M 31.753906 5.957031 C 17.828125 5.957031 6.613281 17.167969 6.613281 31.09375 C 6.613281 31.175781 6.617188 31.257812 6.617188 31.339844 C 6.746094 17.53125 17.910156 6.449219 31.753906 6.449219 C 45.597656 6.449219 56.757812 17.53125 56.890625 31.339844 C 56.890625 31.257812 56.890625 31.175781 56.890625 31.09375 C 56.890625 17.167969 45.679688 5.957031 31.753906 5.957031 Z M 31.753906 5.957031 "/>
<path style=" stroke:none;fill-rule:nonzero;fill:rgb(12.941177%,12.941177%,12.941177%);fill-opacity:1;" d="M 31.753906 5.605469 C 17.726562 5.605469 6.425781 16.902344 6.425781 30.929688 C 6.425781 44.957031 17.726562 56.253906 31.753906 56.253906 C 45.78125 56.253906 57.078125 44.957031 57.078125 30.929688 C 57.078125 16.902344 45.78125 5.605469 31.753906 5.605469 Z M 31.753906 5.980469 C 45.578125 5.980469 56.703125 17.105469 56.703125 30.929688 C 56.703125 44.753906 45.578125 55.878906 31.753906 55.878906 C 17.925781 55.878906 6.800781 44.753906 6.800781 30.929688 C 6.800781 17.105469 17.925781 5.980469 31.753906 5.980469 Z M 31.753906 5.980469 "/>
<path style=" stroke:none;fill-rule:nonzero;fill:url(#linear2);" d="M 37.882812 17.664062 C 36.613281 16.933594 35.003906 17.363281 34.269531 18.632812 L 31.753906 22.992188 L 29.238281 18.632812 C 28.503906 17.363281 26.890625 16.933594 25.621094 17.664062 L 23.332031 18.988281 C 22.0625 19.722656 21.628906 21.332031 22.363281 22.601562 L 24.878906 26.960938 L 19.84375 26.960938 C 18.378906 26.960938 17.199219 28.140625 17.199219 29.605469 L 17.199219 32.253906 C 17.199219 33.71875 18.378906 34.898438 19.84375 34.898438 L 24.878906 34.898438 L 22.363281 39.257812 C 21.628906 40.527344 22.0625 42.140625 23.332031 42.871094 L 25.621094 44.195312 C 26.890625 44.929688 28.503906 44.496094 29.238281 43.226562 L 31.753906 38.867188 L 34.269531 43.226562 C 35.003906 44.496094 36.613281 44.929688 37.882812 44.195312 L 40.175781 42.871094 C 41.445312 42.140625 41.878906 40.527344 41.144531 39.257812 L 38.628906 34.898438 L 43.660156 34.898438 C 45.125 34.898438 46.304688 33.71875 46.304688 32.253906 L 46.304688 29.605469 C 46.304688 28.140625 45.125 26.960938 43.660156 26.960938 L 38.628906 26.960938 L 41.144531 22.601562 C 41.878906 21.332031 41.445312 19.722656 40.175781 18.988281 Z M 37.882812 17.664062 "/>
<path style=" stroke:none;fill-rule:nonzero;fill:rgb(100%,100%,100%);fill-opacity:1;" d="M 27.003906 17.308594 C 26.535156 17.296875 26.058594 17.414062 25.621094 17.664062 L 23.332031 18.988281 C 22.320312 19.570312 21.839844 20.710938 22.054688 21.792969 C 22.199219 21.070312 22.640625 20.414062 23.332031 20.015625 L 25.621094 18.691406 C 26.890625 17.957031 28.503906 18.390625 29.238281 19.660156 L 31.753906 24.019531 L 34.269531 19.660156 C 35.003906 18.390625 36.613281 17.957031 37.882812 18.691406 L 40.175781 20.015625 C 40.863281 20.414062 41.304688 21.070312 41.449219 21.789062 C 41.664062 20.710938 41.183594 19.570312 40.175781 18.988281 L 37.882812 17.664062 C 36.613281 16.933594 35.003906 17.363281 34.269531 18.632812 L 31.753906 22.992188 L 29.238281 18.632812 C 28.753906 17.800781 27.894531 17.328125 27.003906 17.308594 Z M 19.84375 26.960938 C 18.378906 26.960938 17.199219 28.140625 17.199219 29.605469 L 17.199219 30.632812 C 17.199219 29.167969 18.378906 27.988281 19.84375 27.988281 L 24.878906 27.988281 L 24.285156 26.960938 Z M 39.222656 26.960938 L 38.628906 27.988281 L 43.660156 27.988281 C 45.125 27.988281 46.304688 29.167969 46.304688 30.632812 L 46.304688 29.605469 C 46.304688 28.140625 45.125 26.960938 43.660156 26.960938 Z M 24.285156 35.925781 L 22.363281 39.257812 C 22.027344 39.835938 21.9375 40.488281 22.054688 41.097656 C 22.113281 40.816406 22.210938 40.542969 22.363281 40.285156 L 24.878906 35.925781 Z M 38.628906 35.925781 L 41.144531 40.285156 C 41.292969 40.542969 41.394531 40.816406 41.449219 41.097656 C 41.570312 40.488281 41.480469 39.835938 41.144531 39.257812 L 39.222656 35.925781 Z M 38.628906 35.925781 "/>
<path style=" stroke:none;fill-rule:nonzero;fill:rgb(0%,0%,0%);fill-opacity:0.235294;" d="M 41.414062 21.9375 C 41.355469 22.164062 41.265625 22.390625 41.144531 22.601562 L 38.628906 26.960938 L 39.390625 26.960938 L 41.144531 23.925781 C 41.507812 23.296875 41.582031 22.585938 41.414062 21.9375 Z M 22.089844 21.9375 C 21.921875 22.585938 22 23.296875 22.363281 23.925781 L 24.113281 26.960938 L 24.878906 26.960938 L 22.363281 22.601562 C 22.238281 22.390625 22.148438 22.164062 22.089844 21.9375 Z M 17.199219 32.253906 L 17.199219 33.574219 C 17.199219 35.042969 18.378906 36.222656 19.84375 36.222656 L 24.113281 36.222656 L 24.878906 34.898438 L 19.84375 34.898438 C 18.378906 34.898438 17.199219 33.71875 17.199219 32.253906 Z M 46.304688 32.253906 C 46.304688 33.71875 45.125 34.898438 43.660156 34.898438 L 38.628906 34.898438 L 39.390625 36.222656 L 43.660156 36.222656 C 45.125 36.222656 46.304688 35.042969 46.304688 33.574219 Z M 31.753906 38.867188 L 29.238281 43.226562 C 28.503906 44.496094 26.890625 44.929688 25.621094 44.195312 L 23.332031 42.871094 C 22.6875 42.5 22.261719 41.90625 22.089844 41.246094 C 21.800781 42.367188 22.273438 43.585938 23.332031 44.195312 L 25.621094 45.519531 C 26.890625 46.25 28.503906 45.820312 29.238281 44.550781 L 31.753906 40.191406 L 34.269531 44.550781 C 35.003906 45.820312 36.613281 46.25 37.882812 45.519531 L 40.175781 44.195312 C 41.230469 43.585938 41.707031 42.367188 41.414062 41.246094 C 41.246094 41.90625 40.816406 42.5 40.175781 42.871094 L 37.882812 44.195312 C 36.613281 44.929688 35.003906 44.496094 34.269531 43.226562 Z M 31.753906 38.867188 "/>
<path style="fill:none;stroke-width:3;stroke-linecap:round;stroke-linejoin:round;stroke:rgb(12.941177%,12.941177%,12.941177%);stroke-opacity:1;stroke-miterlimit:4;" d="M 303.033562 -73.700993 C 292.878282 -79.544185 280.004511 -76.107014 274.130072 -65.951733 L 254.006994 -31.080063 L 233.883915 -65.951733 C 228.009476 -76.107014 215.104459 -79.544185 204.949178 -73.700993 L 186.638427 -63.108255 C 176.483147 -57.233816 173.014728 -44.360045 178.889167 -34.204765 L 199.012245 0.666905 L 158.734842 0.666905 C 147.017211 0.666905 137.580612 10.103504 137.580612 21.821135 L 137.580612 43.006612 C 137.580612 54.724243 147.017211 64.160841 158.734842 64.160841 L 199.012245 64.160841 L 178.889167 99.032511 C 173.014728 109.187792 176.483147 122.092809 186.638427 127.936001 L 204.949178 138.52874 C 215.104459 144.403179 228.009476 140.93476 233.883915 130.77948 L 254.006994 95.90781 L 274.130072 130.77948 C 280.004511 140.93476 292.878282 144.403179 303.033562 138.52874 L 321.37556 127.936001 C 331.53084 122.092809 334.999259 109.187792 329.12482 99.032511 L 309.001742 64.160841 L 349.247898 64.160841 C 360.96553 64.160841 370.402128 54.724243 370.402128 43.006612 L 370.402128 21.821135 C 370.402128 10.103504 360.96553 0.666905 349.247898 0.666905 L 309.001742 0.666905 L 329.12482 -34.204765 C 334.999259 -44.360045 331.53084 -57.233816 321.37556 -63.108255 Z M 303.033562 -73.700993 " transform="matrix(0.125012,0,0,0.125012,0,26.877566)"/>
</g>
</svg>
